cmd/conneroh/_static/dist/svg/memory-stick.svg

<svg height="18" viewBox="0 0 18 18" width="18" xmlns="http://www.w3.org/2000/svg"><path d="m6 19v-3m4 3v-3m4 3v-3m4 3v-3m-10-5v-2m8 2v-2m-4 2v-2m-10 6h20m-20-8c0-1.104167.895833-2 2-2h16c1.104167 0 2 .895833 2 2v1.098958c-.848958.25-1.432292 1.03125-1.432292 1.921875 0 .885417.583334 1.666667 1.432292 1.916667v5.0625c0 1.104167-.895833 2-2 2h-16c-1.104167 0-2-.895833-2-2v-5.098958c.848958-.25 1.432292-1.03125 1.432292-1.921875 0-.885417-.583334-1.666667-1.432292-1.916667zm0 0" fill="none" stroke="#fff" stroke-linecap="round" stroke-linejoin="round" stroke-width="2" transform="scale(.75)"/></svg>

<svg xmlns="http://www.w3.org/2000/svg" width="24" height="24" fill="none" stroke="white" stroke-linecap="round" stroke-linejoin="round" stroke-width="2">
    <path d="M6 19v-3m4 3v-3m4 3v-3m4 3v-3M8 11V9m8 2V9m-4 2V9M2 15h20M2 7a2 2 0 0 1 2-2h16a2 2 0 0 1 2 2v1.1a2 2 0 0 0 0 3.837V17a2 2 0 0 1-2 2H4a2 2 0 0 1-2-2v-5.1a2 2 0 0 0 0-3.837Z"/>
</svg>
